src/assets/img/icons/inst.svg

<svg width="22" height="22" viewBox="0 0 22 22" fill="none" xmlns="http://www.w3.org/2000/svg">
<path d="M11 5.60938C10.0312 5.60938 9.125 5.85937 8.28125 6.35938C7.46875 6.82812 6.8125 7.48438 6.3125 8.32812C5.84375 9.14062 5.60938 10.0312 5.60938 11C5.60938 11.9688 5.84375 12.875 6.3125 13.7188C6.8125 14.5312 7.46875 15.1875 8.28125 15.6875C9.125 16.1562 10.0312 16.3906 11 16.3906C11.9688 16.3906 12.8594 16.1562 13.6719 15.6875C14.5156 15.1875 15.1719 14.5312 15.6406 13.7188C16.1406 12.875 16.3906 11.9688 16.3906 11C16.3906 10.0312 16.1406 9.14062 15.6406 8.32812C15.1719 7.48438 14.5156 6.82812 13.6719 6.35938C12.8594 5.85937 11.9688 5.60938 11 5.60938ZM11 14.5156C10.0312 14.5156 9.20312 14.1719 8.51562 13.4844C7.82812 12.7969 7.48438 11.9688 7.48438 11C7.48438 10.0312 7.82812 9.20312 8.51562 8.51562C9.20312 7.82812 10.0312 7.48438 11 7.48438C11.9688 7.48438 12.7969 7.82812 13.4844 8.51562C14.1719 9.20312 14.5156 10.0312 14.5156 11C14.5156 11.9688 14.1719 12.7969 13.4844 13.4844C12.7969 14.1719 11.9688 14.5156 11 14.5156ZM17.8906 5.375C17.8594 5.71875 17.7188 6.01563 17.4688 6.26562C17.25 6.51562 16.9688 6.64062 16.625 6.64062C16.2812 6.64062 15.9844 6.51562 15.7344 6.26562C15.4844 6.01563 15.3594 5.71875 15.3594 5.375C15.3594 5.03125 15.4844 4.73437 15.7344 4.48438C15.9844 4.23438 16.2812 4.10938 16.625 4.10938C16.9688 4.10938 17.2656 4.23438 17.5156 4.48438C17.7656 4.73437 17.8906 5.03125 17.8906 5.375ZM21.4531 6.64062C21.3906 5.73438 21.25 4.95312 21.0312 4.29688C20.75 3.51562 20.3125 2.84375 19.7188 2.28125C19.1562 1.6875 18.4844 1.25 17.7031 0.96875C17.0469 0.75 16.2656 0.625 15.3594 0.59375C14.4844 0.53125 13.0312 0.5 11 0.5C8.96875 0.5 7.5 0.53125 6.59375 0.59375C5.71875 0.625 4.95312 0.75 4.29688 0.96875C3.51562 1.25 2.82812 1.6875 2.23438 2.28125C1.67188 2.84375 1.25 3.51562 0.96875 4.29688C0.75 4.95312 0.609375 5.73438 0.546875 6.64062C0.515625 7.51562 0.5 8.96875 0.5 11C0.5 13.0312 0.515625 14.5 0.546875 15.4062C0.609375 16.2812 0.75 17.0469 0.96875 17.7031C1.25 18.4844 1.67188 19.1719 2.23438 19.7656C2.82812 20.3281 3.51562 20.7344 4.29688 20.9844C4.95312 21.2344 5.71875 21.375 6.59375 21.4062C7.5 21.4688 8.96875 21.5 11 21.5C13.0312 21.5 14.4844 21.4688 15.3594 21.4062C16.2656 21.375 17.0469 21.25 17.7031 21.0312C18.4844 20.75 19.1562 20.3281 19.7188 19.7656C20.3125 19.1719 20.75 18.4844 21.0312 17.7031C21.25 17.0469 21.375 16.2812 21.4062 15.4062C21.4688 14.5 21.5 13.0312 21.5 11C21.5 8.96875 21.4844 7.51562 21.4531 6.64062ZM19.2031 17.1875C18.8281 18.125 18.1562 18.7969 17.1875 19.2031C16.6875 19.3906 15.8438 19.5156 14.6562 19.5781C14 19.6094 13.0312 19.625 11.75 19.625H10.25C9 19.625 8.03125 19.6094 7.34375 19.5781C6.1875 19.5156 5.34375 19.3906 4.8125 19.2031C3.875 18.8281 3.20312 18.1562 2.79688 17.1875C2.60938 16.6562 2.48438 15.8125 2.42188 14.6562C2.39062 13.9688 2.375 13 2.375 11.75V10.25C2.375 9 2.39062 8.03125 2.42188 7.34375C2.48438 6.15625 2.60938 5.3125 2.79688 4.8125C3.17188 3.84375 3.84375 3.17188 4.8125 2.79688C5.34375 2.60938 6.1875 2.48437 7.34375 2.42188C8.03125 2.39062 9 2.375 10.25 2.375H11.75C13 2.375 13.9688 2.39062 14.6562 2.42188C15.8438 2.48437 16.6875 2.60938 17.1875 2.79688C18.1562 3.17188 18.8281 3.84375 19.2031 4.8125C19.3906 5.3125 19.5156 6.15625 19.5781 7.34375C19.6094 8 19.625 8.96875 19.625 10.25V11.75C19.625 13 19.6094 13.9688 19.5781 14.6562C19.5156 15.8125 19.3906 16.6562 19.2031 17.1875Z" fill="url(#paint0_linear)"/>
<defs>
<linearGradient id="paint0_linear" x1="11" y1="-1" x2="11" y2="23" gradientUnits="userSpaceOnUse">
<stop stop-color="#BC9CFF"/>
<stop offset="1" stop-color="#8BA4F9"/>
</linearGradient>
</defs>
</svg>

<svg xmlns="http://www.w3.org/2000/svg" width="22" height="22" fill="none"><path fill="url(#paint0_linear)" d="M11 5.6c-.97 0-1.88.26-2.72.76A5.4 5.4 0 005.61 11c0 .97.23 1.88.7 2.72.5.81 1.16 1.47 1.97 1.97a5.51 5.51 0 005.4 0A5.4 5.4 0 0011 5.6zm0 8.92c-.97 0-1.8-.35-2.48-1.04A3.39 3.39 0 017.48 11c0-.97.35-1.8 1.04-2.48A3.39 3.39 0 0111 7.48c.97 0 1.8.35 2.48 1.04A3.39 3.39 0 0114.52 11c0 .97-.35 1.8-1.04 2.48A3.39 3.39 0 0111 14.52zm6.9-9.14a1.4 1.4 0 01-.43.89c-.22.25-.5.37-.84.37-.35 0-.65-.12-.9-.37a1.22 1.22 0 01-.37-.9c0-.34.12-.64.37-.89s.55-.37.9-.37c.34 0 .64.12.89.37s.37.55.37.9zm3.55 1.26c-.06-.9-.2-1.69-.42-2.34a5.13 5.13 0 00-1.31-2.02A5.13 5.13 0 0017.7.97a8.36 8.36 0 00-2.34-.38C14.48.53 13.03.5 11 .5 8.97.5 7.5.53 6.6.6a8.2 8.2 0 00-2.3.37A5.54 5.54 0 00.97 4.3a9.54 9.54 0 00-.42 2.34C.52 7.52.5 8.97.5 11c0 2.03.02 3.5.05 4.4.06.88.2 1.65.42 2.3.28.78.7 1.47 1.26 2.07.6.56 1.29.96 2.07 1.21.65.25 1.42.4 2.3.43.9.06 2.37.09 4.4.09 2.03 0 3.48-.03 4.36-.1.9-.02 1.69-.15 2.34-.37a5.4 5.4 0 003.33-3.33 8.2 8.2 0 00.38-2.3 139.14 139.14 0 00.05-8.77zM19.2 17.2a3.55 3.55 0 01-2.01 2.01 9.4 9.4 0 01-2.53.38c-.66.03-1.63.05-2.91.05h-1.5a68.3 68.3 0 01-2.9-.05c-1.16-.06-2-.19-2.54-.38A3.55 3.55 0 012.8 17.2a9.87 9.87 0 01-.38-2.53c-.03-.7-.04-1.66-.04-2.91v-1.5c0-1.25.01-2.22.04-2.9A9.4 9.4 0 012.8 4.8 3.38 3.38 0 014.8 2.8a9.87 9.87 0 012.53-.38c.7-.03 1.66-.04 2.91-.04h1.5c1.25 0 2.22.01 2.9.04a9.4 9.4 0 012.54.38A3.38 3.38 0 0119.2 4.8c.2.5.32 1.35.38 2.53.03.66.05 1.63.05 2.91v1.5c0 1.25-.02 2.22-.05 2.9-.06 1.16-.19 2-.38 2.54z"/><defs><linearGradient id="paint0_linear" x1="11" x2="11" y1="-1" y2="23" gradientUnits="userSpaceOnUse"><stop stop-color="#BC9CFF"/><stop offset="1" stop-color="#8BA4F9"/></linearGradient></defs></svg>
